X: 106106
T: YOU'R WELCOME CHARLIE STEWART
Q:"Reel."
R: Reel.
%R:reel
B: James Kerr "Merry Melodies" v.1 p.6 s.1 #6
Z: 2017 John Chambers <jc:trillian.mit.edu>
M: C
L: 1/8
K: D
|: B |\
AFED G2(GB) | AFED E2(EB) |\
AFED GABd | AFdF D2-D ::\
A |\
defd gedc | defd ecBA |\
defd gfeg | faAc d2-d :|\
"_Fine"D4 ||

% %newpage
%%sep 1 1 500
%%sep 1 1 500
%%center Set. 7th.

%%sep 1 1 500
%%sep 1 1 500

